icons/fill-ele-symbol-menu-sqare-app-matrix.svg

<svg xmlns="http://www.w3.org/2000/svg" width="32px" height="32px" viewBox="0 0 32 32" version="1.1">
    <title>fill-ele-symbol-menu-sqare-app-matrix</title>
    <g id="fill-ele-symbol-menu-sqare-app-matrix" stroke-width="1" fill-rule="evenodd">
        <path d="M5,4 L13,4 C13.5522847,4 14,4.44771525 14,5 L14,13 C14,13.5522847 13.5522847,14 13,14 L5,14 C4.44771525,14 4,13.5522847 4,13 L4,5 C4,4.44771525 4.44771525,4 5,4 Z M19,4 L27,4 C27.5522847,4 28,4.44771525 28,5 L28,13 C28,13.5522847 27.5522847,14 27,14 L19,14 C18.4477153,14 18,13.5522847 18,13 L18,5 C18,4.44771525 18.4477153,4 19,4 Z M5,18 L13,18 C13.5522847,18 14,18.4477153 14,19 L14,27 C14,27.5522847 13.5522847,28 13,28 L5,28 C4.44771525,28 4,27.5522847 4,27 L4,19 C4,18.4477153 4.44771525,18 5,18 Z M19,18 L27,18 C27.5522847,18 28,18.4477153 28,19 L28,27 C28,27.5522847 27.5522847,28 27,28 L19,28 C18.4477153,28 18,27.5522847 18,27 L18,19 C18,18.4477153 18.4477153,18 19,18 Z" id="&#24418;&#29366;" />
    </g>
</svg>

<svg xmlns="http://www.w3.org/2000/svg" viewBox="0 0 32 32"><path fill="currentColor" d="M5 4h8a1 1 0 0 1 1 1v8a1 1 0 0 1-1 1H5a1 1 0 0 1-1-1V5a1 1 0 0 1 1-1m14 0h8a1 1 0 0 1 1 1v8a1 1 0 0 1-1 1h-8a1 1 0 0 1-1-1V5a1 1 0 0 1 1-1M5 18h8a1 1 0 0 1 1 1v8a1 1 0 0 1-1 1H5a1 1 0 0 1-1-1v-8a1 1 0 0 1 1-1m14 0h8a1 1 0 0 1 1 1v8a1 1 0 0 1-1 1h-8a1 1 0 0 1-1-1v-8a1 1 0 0 1 1-1"/></svg>
